storage/app/icons/phosphoricons/bold/battery-plus-vertical-bold.svg

<svg xmlns="http://www.w3.org/2000/svg" fill="currentColor" viewBox="0 0 256 256"><path d="M92 12a12 12 0 0 1 12-12h48a12 12 0 0 1 0 24h-48a12 12 0 0 1-12-12m112 48v168a28 28 0 0 1-28 28H80a28 28 0 0 1-28-28V60a28 28 0 0 1 28-28h96a28 28 0 0 1 28 28m-24 0a4 4 0 0 0-4-4H80a4 4 0 0 0-4 4v168a4 4 0 0 0 4 4h96a4 4 0 0 0 4-4Zm-28 68h-12v-12a12 12 0 0 0-24 0v12h-12a12 12 0 0 0 0 24h12v12a12 12 0 0 0 24 0v-12h12a12 12 0 0 0 0-24"/></svg>

<svg xmlns="http://www.w3.org/2000/svg" viewBox="0 0 256 256" fill="currentColor"><path d="M92,12A12,12,0,0,1,104,0h48a12,12,0,0,1,0,24H104A12,12,0,0,1,92,12ZM204,60V228a28,28,0,0,1-28,28H80a28,28,0,0,1-28-28V60A28,28,0,0,1,80,32h96A28,28,0,0,1,204,60Zm-24,0a4,4,0,0,0-4-4H80a4,4,0,0,0-4,4V228a4,4,0,0,0,4,4h96a4,4,0,0,0,4-4Zm-28,68H140V116a12,12,0,0,0-24,0v12H104a12,12,0,0,0,0,24h12v12a12,12,0,0,0,24,0V152h12a12,12,0,0,0,0-24Z"/></svg>
